src/assets/selectIconsSpells/barriera_1.svg

<svg xmlns="http://www.w3.org/2000/svg" viewBox="0 0 512 512"><path d="M0 0h512v512H0z"/><path fill="#fff" d="M251.313 23.844L49.438 140.25l-.376 233.5 202.625 116.406L453.563 373.75l.375-233.5L251.313 23.844zm-1.407 57.062l52.406 30.25v60.5l-52.406 30.25-52.406-30.25v-60.5l52.406-30.25zm-105.344 60.47l52.407 30.25v60.5l-52.407 30.25 52.406 30.25v60.53l-52.407 30.25-52.407-30.25v-60.53l52.406-30.25-52.406-30.25v-60.5l52.406-30.25zm210.313 0l52.406 30.25v60.5l-52.405 30.25 52.406 30.25v60.53l-52.405 30.25-52.406-30.25v-60.53l52.405-30.25-52.406-30.25v-60.5l52.405-30.25zM249.905 202l52.407 30.25v60.5l-52.28 30.188 52.28 30.156v60.53l-52.406 30.25-52.406-30.25v-60.53l52.28-30.156-52.28-30.188v-60.5L249.906 202z"/></svg>

<?xml version="1.0" encoding="UTF-8" standalone="no"?>
<!DOCTYPE svg PUBLIC "-//W3C//DTD SVG 1.1//EN" "http://www.w3.org/Graphics/SVG/1.1/DTD/svg11.dtd">
<svg width="100%" height="100%" viewBox="0 0 512 512" version="1.1" xmlns="http://www.w3.org/2000/svg" xmlns:xlink="http://www.w3.org/1999/xlink" xml:space="preserve" xmlns:serif="http://www.serif.com/" style="fill-rule:evenodd;clip-rule:evenodd;stroke-linejoin:round;stroke-miterlimit:2;">
    <rect x="0" y="0" width="512" height="512" style="fill-rule:nonzero;"/>
    <path d="M251.313,23.844L49.438,140.25L49.062,373.75L251.687,490.156L453.563,373.75L453.938,140.25L251.313,23.844ZM249.906,80.906L302.312,111.156L302.312,171.656L249.906,201.906L197.5,171.656L197.5,111.156L249.906,80.906ZM144.562,141.376L196.969,171.626L196.969,232.126L144.562,262.376L196.968,292.626L196.968,353.156L144.561,383.406L92.154,353.156L92.154,292.626L144.56,262.376L92.154,232.126L92.154,171.626L144.56,141.376L144.562,141.376ZM354.875,141.376L407.281,171.626L407.281,232.126L354.876,262.376L407.282,292.626L407.282,353.156L354.877,383.406L302.471,353.156L302.471,292.626L354.876,262.376L302.47,232.126L302.47,171.626L354.875,141.376ZM249.905,202L302.312,232.25L302.312,292.75L250.032,322.938L302.312,353.094L302.312,413.624L249.906,443.874L197.5,413.624L197.5,353.094L249.78,322.938L197.5,292.75L197.5,232.25L249.906,202L249.905,202Z" style="fill:url(#_Linear1);fill-rule:nonzero;"/>
    <defs>
        <linearGradient id="_Linear1" x1="0" y1="0" x2="1" y2="0" gradientUnits="userSpaceOnUse" gradientTransform="matrix(404.876,0,0,466.312,49.062,257)"><stop offset="0" style="stop-color:rgb(255,0,239);stop-opacity:1"/><stop offset="1" style="stop-color:rgb(0,255,98);stop-opacity:1"/></linearGradient>
    </defs>
</svg>
